resources/devtools/copy.svg

<!-- This Source Code Form is subject to the terms of the Mozilla Public
   - License, v. 2.0. If a copy of the MPL was not distributed with this
   - file, You can obtain one at http://mozilla.org/MPL/2.0/. -->
<svg xmlns="http://www.w3.org/2000/svg" viewBox="0 0 12 12" fill="context-fill #0b0b0b">
  <path d="M5.70001221,11.125 L5.70001221,4.625 L7.66001225,4.625 L7.66001225,6.94642857 C7.66001225,7.20271429 7.87953225,7.41071429 8.15001225,7.41071429 L10.6000123,7.41071429 L10.6000123,11.125 L5.70001221,11.125 Z M4.7,5.475 L4.7,7.275 L2,7.275 L2,0.975 L3.8,0.975 L3.8,3.225 C3.8,3.4734 4.0016,3.675 4.25,3.675 L6.5,3.675 C5.5064,3.675 4.7,4.4814 4.7,5.475 Z M6.84002447,3.00050006 L4.65002441,3.00050006 L4.65002441,0.8105 L6.84002447,3.00050006 Z M10.5,6.6000061 L8.5,6.6000061 L8.5,4.6000061 L10.5,6.6000061 Z M11.28025,6.21975 L9.03025,3.96975 C8.89,3.82875 8.6995,3.75 8.5,3.75 L7.75,3.75 L7.75,3 C7.75,2.80125 7.67125,2.61 7.53025,2.46975 L5.28025,0.21975 C5.14,0.07875 4.94875,0 4.75,0 L2.5,0 C1.672,0 1,0.672 1,1.5 L1,6.75 C1,7.578 1.672,8.25 2.5,8.25 L4.75,8.25 L4.75,10.5 C4.75,11.328 5.422,12 6.25,12 L10,12 C10.828,12 11.5,11.328 11.5,10.5 L11.5,6.75 C11.5,6.55125 11.42125,6.36 11.28025,6.21975 Z"></path>
</svg>

<svg xmlns="http://www.w3.org/2000/svg" viewBox="0 0 12 12" fill="context-fill #0b0b0b">
    <path d="M5.7 11.125v-6.5h1.96v2.321c0 .257.22.465.49.465h2.45v3.714H5.7Zm-1-5.65v1.8H2v-6.3h1.8v2.25c0 .248.202.45.45.45H6.5a1.8 1.8 0 0 0-1.8 1.8Zm2.14-2.474H4.65V.81L6.84 3ZM10.5 6.6h-2v-2l2 2Zm.78-.38L9.03 3.97a.747.747 0 0 0-.53-.22h-.75V3a.748.748 0 0 0-.22-.53L5.28.22A.748.748 0 0 0 4.75 0H2.5A1.5 1.5 0 0 0 1 1.5v5.25a1.5 1.5 0 0 0 1.5 1.5h2.25v2.25a1.5 1.5 0 0 0 1.5 1.5H10a1.5 1.5 0 0 0 1.5-1.5V6.75a.748.748 0 0 0-.22-.53Z"/>
</svg>
